X: 1
T:Sweeney's (or Dennis Murphy's) Polka  "137 bpm"
M:C|
L:1/8
Q:80
C:arr. Kent Hiestand
S:Polka
K:HP
|: {g}f/2g/2f/2e/2d/2c/2d/2B/2|
{g}Ad{g}fa|
ge{A}e3/2d/2|  !
{g}cB{G}B{G}A|
{g}f/2g/2f/2e/2d/2c/2d/2B/2|
{g}Ad{g}fa|  !
ge{A}e3/2f/2|1
{g}ed{c}d3/2e/2:|2
{g}ed{c}d3/2B/2:|  !
{g}Af{g}f/2e/2f|
{g}Ag{f}g/2f/2g|
{g}Af{g}f/2e/2f|  !
{g}e/2f/2e/2d/2{g}B{G}A|
{g}Af{g}f/2e/2f|
{g}Ag{f}g/2f/2g|  !
a{g}a{g}f/2a/2{g}a/2f/2|1
{g}ed{c}d3/2B/2:|2
{g}ed{c}d3/2e/2:|  !
